images/50616213.svg

<?xml version="1.0" encoding="UTF-8"?>
<svg xmlns="http://www.w3.org/2000/svg" xmlns:xlink="http://www.w3.org/1999/xlink" width="300pt" height="300pt" viewBox="0 0 300 300" version="1.1">
<defs>
<g>
<symbol overflow="visible" id="glyph0-0">
<path style="stroke:none;" d="M 0.453125 1.59375 L 0.453125 -6.34375 L 4.953125 -6.34375 L 4.953125 1.59375 Z M 0.953125 1.09375 L 4.453125 1.09375 L 4.453125 -5.84375 L 0.953125 -5.84375 Z M 0.953125 1.09375 "/>
</symbol>
<symbol overflow="visible" id="glyph0-1">
<path style="stroke:none;" d="M 3.546875 -5.953125 C 2.898438 -5.953125 2.382812 -5.710938 2 -5.234375 C 1.625 -4.753906 1.4375 -4.101562 1.4375 -3.28125 C 1.4375 -2.445312 1.625 -1.789062 2 -1.3125 C 2.382812 -0.832031 2.898438 -0.59375 3.546875 -0.59375 C 4.191406 -0.59375 4.703125 -0.832031 5.078125 -1.3125 C 5.453125 -1.789062 5.640625 -2.445312 5.640625 -3.28125 C 5.640625 -4.101562 5.453125 -4.753906 5.078125 -5.234375 C 4.703125 -5.710938 4.191406 -5.953125 3.546875 -5.953125 Z M 3.546875 -6.6875 C 4.460938 -6.6875 5.195312 -6.375 5.75 -5.75 C 6.300781 -5.132812 6.578125 -4.3125 6.578125 -3.28125 C 6.578125 -2.238281 6.300781 -1.410156 5.75 -0.796875 C 5.195312 -0.179688 4.460938 0.125 3.546875 0.125 C 2.617188 0.125 1.878906 -0.179688 1.328125 -0.796875 C 0.773438 -1.410156 0.5 -2.238281 0.5 -3.28125 C 0.5 -4.3125 0.773438 -5.132812 1.328125 -5.75 C 1.878906 -6.375 2.617188 -6.6875 3.546875 -6.6875 Z M 3.546875 -6.6875 "/>
</symbol>
<symbol overflow="visible" id="glyph0-2">
<path style="stroke:none;" d="M 0.890625 -6.5625 L 2.078125 -6.5625 L 4.984375 -1.078125 L 4.984375 -6.5625 L 5.84375 -6.5625 L 5.84375 0 L 4.65625 0 L 1.75 -5.484375 L 1.75 0 L 0.890625 0 Z M 0.890625 -6.5625 "/>
</symbol>
<symbol overflow="visible" id="glyph0-3">
<path style="stroke:none;" d="M 0.890625 -6.5625 L 1.765625 -6.5625 L 1.765625 -3.875 L 5 -3.875 L 5 -6.5625 L 5.890625 -6.5625 L 5.890625 0 L 5 0 L 5 -3.125 L 1.765625 -3.125 L 1.765625 0 L 0.890625 0 Z M 0.890625 -6.5625 "/>
</symbol>
</g>
</defs>
<g id="surface15157">
<rect x="0" y="0" width="300" height="300" style="fill:rgb(100%,100%,100%);fill-opacity:1;stroke:none;"/>
<path style="fill:none;stroke-width:1.2;stroke-linecap:butt;stroke-linejoin:miter;stroke:rgb(100%,0%,0%);stroke-opacity:1;stroke-miterlimit:10;" d="M 35.25 132.679688 L 44.984375 137.980469 "/>
<path style="fill:none;stroke-width:1.2;stroke-linecap:butt;stroke-linejoin:miter;stroke:rgb(0%,0%,0%);stroke-opacity:1;stroke-miterlimit:10;" d="M 44.984375 137.980469 L 54.714844 143.28125 "/>
<path style="fill:none;stroke-width:1.2;stroke-linecap:butt;stroke-linejoin:miter;stroke:rgb(0%,0%,0%);stroke-opacity:1;stroke-miterlimit:10;" d="M 39.316406 110.890625 L 37.285156 121.785156 "/>
<path style="fill:none;stroke-width:1.2;stroke-linecap:butt;stroke-linejoin:miter;stroke:rgb(100%,0%,0%);stroke-opacity:1;stroke-miterlimit:10;" d="M 37.285156 121.785156 L 35.25 132.679688 "/>
<path style=" stroke:none;fill-rule:nonzero;fill:rgb(100%,100%,100%);fill-opacity:1;" d="M 31.25 127.179688 L 39.25 127.179688 L 39.25 138.179688 L 31.25 138.179688 Z M 31.25 127.179688 "/>
<g style="fill:rgb(100%,0%,0%);fill-opacity:1;">
  <use xlink:href="#glyph0-1" x="31.25" y="135.842773"/>
</g>
<path style="fill:none;stroke-width:1.2;stroke-linecap:butt;stroke-linejoin:miter;stroke:rgb(0%,0%,0%);stroke-opacity:1;stroke-miterlimit:10;" d="M 54.714844 143.28125 L 70.8125 128.042969 "/>
<path style="fill:none;stroke-width:1.2;stroke-linecap:butt;stroke-linejoin:miter;stroke:rgb(0%,0%,0%);stroke-opacity:1;stroke-miterlimit:10;" d="M 70.8125 128.042969 L 81.707031 130.078125 "/>
<path style="fill:none;stroke-width:1.2;stroke-linecap:butt;stroke-linejoin:miter;stroke:rgb(0%,0%,100%);stroke-opacity:1;stroke-miterlimit:10;" d="M 81.707031 130.078125 L 92.601562 132.109375 "/>
<path style="fill:none;stroke-width:1.2;stroke-linecap:butt;stroke-linejoin:miter;stroke:rgb(0%,0%,0%);stroke-opacity:1;stroke-miterlimit:10;" d="M 70.8125 128.042969 L 61.296875 108.027344 "/>
<path style="fill:none;stroke-width:1.2;stroke-linecap:butt;stroke-linejoin:miter;stroke:rgb(0%,0%,100%);stroke-opacity:1;stroke-miterlimit:10;" d="M 92.601562 132.109375 L 108.695312 116.875 "/>
<path style="fill:none;stroke-width:1.2;stroke-linecap:butt;stroke-linejoin:miter;stroke:rgb(0%,0%,0%);stroke-opacity:1;stroke-miterlimit:10;" d="M 102.117188 152.128906 L 97.359375 142.121094 "/>
<path style="fill:none;stroke-width:1.2;stroke-linecap:butt;stroke-linejoin:miter;stroke:rgb(0%,0%,100%);stroke-opacity:1;stroke-miterlimit:10;" d="M 97.359375 142.121094 L 92.601562 132.109375 "/>
<path style=" stroke:none;fill-rule:nonzero;fill:rgb(100%,100%,100%);fill-opacity:1;" d="M 89.601562 126.609375 L 96.601562 126.609375 L 96.601562 137.609375 L 89.601562 137.609375 Z M 89.601562 126.609375 "/>
<g style="fill:rgb(0%,0%,100%);fill-opacity:1;">
  <use xlink:href="#glyph0-2" x="89.601562" y="135.272461"/>
</g>
<path style="fill:none;stroke-width:1.2;stroke-linecap:butt;stroke-linejoin:miter;stroke:rgb(0%,0%,100%);stroke-opacity:1;stroke-miterlimit:10;" d="M 108.695312 116.875 L 118.429688 122.175781 "/>
<path style="fill:none;stroke-width:1.2;stroke-linecap:butt;stroke-linejoin:miter;stroke:rgb(0%,0%,0%);stroke-opacity:1;stroke-miterlimit:10;" d="M 118.429688 122.175781 L 128.160156 127.476562 "/>
<path style="fill:none;stroke-width:1.2;stroke-linecap:butt;stroke-linejoin:miter;stroke:rgb(0%,0%,100%);stroke-opacity:1;stroke-miterlimit:10;" d="M 108.148438 122.515625 L 115.933594 126.753906 "/>
<path style="fill:none;stroke-width:1.2;stroke-linecap:butt;stroke-linejoin:miter;stroke:rgb(0%,0%,0%);stroke-opacity:1;stroke-miterlimit:10;" d="M 115.933594 126.753906 L 123.722656 130.996094 "/>
<path style=" stroke:none;fill-rule:nonzero;fill:rgb(100%,100%,100%);fill-opacity:1;" d="M 105.695312 111.375 L 112.695312 111.375 L 112.695312 122.375 L 105.695312 122.375 Z M 105.695312 111.375 "/>
<g style="fill:rgb(0%,0%,100%);fill-opacity:1;">
  <use xlink:href="#glyph0-2" x="105.695312" y="120.038086"/>
</g>
<path style="fill:none;stroke-width:1.2;stroke-linecap:butt;stroke-linejoin:miter;stroke:rgb(0%,0%,0%);stroke-opacity:1;stroke-miterlimit:10;" d="M 128.160156 127.476562 L 126.128906 138.371094 "/>
<path style="fill:none;stroke-width:1.2;stroke-linecap:butt;stroke-linejoin:miter;stroke:rgb(0%,0%,100%);stroke-opacity:1;stroke-miterlimit:10;" d="M 126.128906 138.371094 L 124.09375 149.265625 "/>
<path style="fill:none;stroke-width:1.2;stroke-linecap:butt;stroke-linejoin:miter;stroke:rgb(0%,0%,0%);stroke-opacity:1;stroke-miterlimit:10;" d="M 128.160156 127.476562 L 148.179688 117.957031 "/>
<path style="fill:none;stroke-width:1.2;stroke-linecap:butt;stroke-linejoin:miter;stroke:rgb(0%,0%,100%);stroke-opacity:1;stroke-miterlimit:10;" d="M 124.09375 149.265625 L 131.714844 157.3125 "/>
<path style="fill:none;stroke-width:1.2;stroke-linecap:butt;stroke-linejoin:miter;stroke:rgb(0%,0%,0%);stroke-opacity:1;stroke-miterlimit:10;" d="M 131.714844 157.3125 L 139.332031 165.359375 "/>
<path style="fill:none;stroke-width:1.2;stroke-linecap:butt;stroke-linejoin:miter;stroke:rgb(0%,0%,100%);stroke-opacity:1;stroke-miterlimit:10;" d="M 124.09375 149.265625 L 113.105469 150.695312 "/>
<path style="fill:none;stroke-width:1.2;stroke-linecap:butt;stroke-linejoin:miter;stroke:rgb(0%,0%,0%);stroke-opacity:1;stroke-miterlimit:10;" d="M 113.105469 150.695312 L 102.117188 152.128906 "/>
<path style=" stroke:none;fill-rule:nonzero;fill:rgb(100%,100%,100%);fill-opacity:1;" d="M 121.09375 143.765625 L 128.09375 143.765625 L 128.09375 154.765625 L 121.09375 154.765625 Z M 121.09375 143.765625 "/>
<g style="fill:rgb(0%,0%,100%);fill-opacity:1;">
  <use xlink:href="#glyph0-2" x="121.09375" y="152.428711"/>
</g>
<path style="fill:none;stroke-width:1.2;stroke-linecap:butt;stroke-linejoin:miter;stroke:rgb(0%,0%,0%);stroke-opacity:1;stroke-miterlimit:10;" d="M 139.332031 165.359375 L 160.890625 160.214844 "/>
<path style="fill:none;stroke-width:1.2;stroke-linecap:butt;stroke-linejoin:miter;stroke:rgb(0%,0%,0%);stroke-opacity:1;stroke-miterlimit:10;" d="M 142.699219 169.917969 L 159.945312 165.800781 "/>
<path style="fill:none;stroke-width:1.2;stroke-linecap:butt;stroke-linejoin:miter;stroke:rgb(0%,0%,0%);stroke-opacity:1;stroke-miterlimit:10;" d="M 133.007812 186.605469 L 139.332031 165.359375 "/>
<path style="fill:none;stroke-width:1.2;stroke-linecap:butt;stroke-linejoin:miter;stroke:rgb(0%,0%,0%);stroke-opacity:1;stroke-miterlimit:10;" d="M 160.890625 160.214844 L 176.125 176.3125 "/>
<path style="fill:none;stroke-width:1.2;stroke-linecap:butt;stroke-linejoin:miter;stroke:rgb(0%,0%,0%);stroke-opacity:1;stroke-miterlimit:10;" d="M 176.125 176.3125 L 169.804688 197.554688 "/>
<path style="fill:none;stroke-width:1.2;stroke-linecap:butt;stroke-linejoin:miter;stroke:rgb(0%,0%,0%);stroke-opacity:1;stroke-miterlimit:10;" d="M 180.492188 179.921875 L 175.433594 196.917969 "/>
<path style="fill:none;stroke-width:1.2;stroke-linecap:butt;stroke-linejoin:miter;stroke:rgb(0%,0%,0%);stroke-opacity:1;stroke-miterlimit:10;" d="M 197.683594 171.164062 L 176.125 176.3125 "/>
<path style="fill:none;stroke-width:1.2;stroke-linecap:butt;stroke-linejoin:miter;stroke:rgb(0%,0%,0%);stroke-opacity:1;stroke-miterlimit:10;" d="M 169.804688 197.554688 L 148.246094 202.703125 "/>
<path style="fill:none;stroke-width:1.2;stroke-linecap:butt;stroke-linejoin:miter;stroke:rgb(0%,0%,0%);stroke-opacity:1;stroke-miterlimit:10;" d="M 169.804688 197.554688 L 185.042969 213.652344 "/>
<path style="fill:none;stroke-width:1.2;stroke-linecap:butt;stroke-linejoin:miter;stroke:rgb(0%,0%,0%);stroke-opacity:1;stroke-miterlimit:10;" d="M 148.246094 202.703125 L 133.007812 186.605469 "/>
<path style="fill:none;stroke-width:1.2;stroke-linecap:butt;stroke-linejoin:miter;stroke:rgb(0%,0%,0%);stroke-opacity:1;stroke-miterlimit:10;" d="M 150.511719 197.507812 L 138.320312 184.628906 "/>
<path style="fill:none;stroke-width:1.2;stroke-linecap:butt;stroke-linejoin:miter;stroke:rgb(0%,0%,0%);stroke-opacity:1;stroke-miterlimit:10;" d="M 185.042969 213.652344 L 206.601562 208.503906 "/>
<path style="fill:none;stroke-width:1.2;stroke-linecap:butt;stroke-linejoin:miter;stroke:rgb(0%,0%,0%);stroke-opacity:1;stroke-miterlimit:10;" d="M 185.984375 208.0625 L 203.234375 203.945312 "/>
<path style="fill:none;stroke-width:1.2;stroke-linecap:butt;stroke-linejoin:miter;stroke:rgb(0%,0%,0%);stroke-opacity:1;stroke-miterlimit:10;" d="M 206.601562 208.503906 L 212.921875 187.261719 "/>
<path style="fill:none;stroke-width:1.2;stroke-linecap:butt;stroke-linejoin:miter;stroke:rgb(0%,0%,0%);stroke-opacity:1;stroke-miterlimit:10;" d="M 212.921875 187.261719 L 197.683594 171.164062 "/>
<path style="fill:none;stroke-width:1.2;stroke-linecap:butt;stroke-linejoin:miter;stroke:rgb(0%,0%,0%);stroke-opacity:1;stroke-miterlimit:10;" d="M 207.609375 189.238281 L 195.421875 176.359375 "/>
<path style="fill:none;stroke-width:1.2;stroke-linecap:butt;stroke-linejoin:miter;stroke:rgb(0%,0%,0%);stroke-opacity:1;stroke-miterlimit:10;" d="M 99.828125 150.882812 L 94.527344 160.613281 "/>
<path style="fill:none;stroke-width:1.2;stroke-linecap:butt;stroke-linejoin:miter;stroke:rgb(100%,0%,0%);stroke-opacity:1;stroke-miterlimit:10;" d="M 94.527344 160.613281 L 89.226562 170.347656 "/>
<path style="fill:none;stroke-width:1.2;stroke-linecap:butt;stroke-linejoin:miter;stroke:rgb(0%,0%,0%);stroke-opacity:1;stroke-miterlimit:10;" d="M 104.40625 153.375 L 99.105469 163.109375 "/>
<path style="fill:none;stroke-width:1.2;stroke-linecap:butt;stroke-linejoin:miter;stroke:rgb(100%,0%,0%);stroke-opacity:1;stroke-miterlimit:10;" d="M 99.105469 163.109375 L 93.804688 172.839844 "/>
<path style=" stroke:none;fill-rule:nonzero;fill:rgb(100%,100%,100%);fill-opacity:1;" d="M 83.515625 166.09375 L 91.515625 166.09375 L 91.515625 177.09375 L 83.515625 177.09375 Z M 83.515625 166.09375 "/>
<g style="fill:rgb(100%,0%,0%);fill-opacity:1;">
  <use xlink:href="#glyph0-1" x="83.515625" y="174.756836"/>
</g>
<path style="fill:none;stroke-width:1.2;stroke-linecap:butt;stroke-linejoin:miter;stroke:rgb(0%,0%,0%);stroke-opacity:1;stroke-miterlimit:10;" d="M 148.179688 117.957031 L 166.429688 130.535156 "/>
<path style="fill:none;stroke-width:1.2;stroke-linecap:butt;stroke-linejoin:miter;stroke:rgb(0%,0%,0%);stroke-opacity:1;stroke-miterlimit:10;" d="M 152.964844 114.921875 L 167.5625 124.984375 "/>
<path style="fill:none;stroke-width:1.2;stroke-linecap:butt;stroke-linejoin:miter;stroke:rgb(0%,0%,0%);stroke-opacity:1;stroke-miterlimit:10;" d="M 149.945312 95.863281 L 148.179688 117.957031 "/>
<path style="fill:none;stroke-width:1.2;stroke-linecap:butt;stroke-linejoin:miter;stroke:rgb(0%,0%,0%);stroke-opacity:1;stroke-miterlimit:10;" d="M 166.429688 130.535156 L 186.449219 121.019531 "/>
<path style="fill:none;stroke-width:1.2;stroke-linecap:butt;stroke-linejoin:miter;stroke:rgb(0%,0%,0%);stroke-opacity:1;stroke-miterlimit:10;" d="M 186.449219 121.019531 L 187.332031 109.972656 "/>
<path style="fill:none;stroke-width:1.2;stroke-linecap:butt;stroke-linejoin:miter;stroke:rgb(0%,0%,100%);stroke-opacity:1;stroke-miterlimit:10;" d="M 187.332031 109.972656 L 188.214844 98.925781 "/>
<path style="fill:none;stroke-width:1.2;stroke-linecap:butt;stroke-linejoin:miter;stroke:rgb(0%,0%,0%);stroke-opacity:1;stroke-miterlimit:10;" d="M 181.425781 118.394531 L 182.132812 109.558594 "/>
<path style="fill:none;stroke-width:1.2;stroke-linecap:butt;stroke-linejoin:miter;stroke:rgb(0%,0%,100%);stroke-opacity:1;stroke-miterlimit:10;" d="M 182.132812 109.558594 L 182.839844 100.71875 "/>
<path style="fill:none;stroke-width:1.2;stroke-linecap:butt;stroke-linejoin:miter;stroke:rgb(0%,0%,0%);stroke-opacity:1;stroke-miterlimit:10;" d="M 186.449219 121.019531 L 195.574219 127.308594 "/>
<path style="fill:none;stroke-width:1.2;stroke-linecap:butt;stroke-linejoin:miter;stroke:rgb(0%,0%,100%);stroke-opacity:1;stroke-miterlimit:10;" d="M 195.574219 127.308594 L 204.699219 133.597656 "/>
<path style="fill:none;stroke-width:1.2;stroke-linecap:butt;stroke-linejoin:miter;stroke:rgb(0%,0%,100%);stroke-opacity:1;stroke-miterlimit:10;" d="M 188.214844 98.925781 L 179.089844 92.636719 "/>
<path style="fill:none;stroke-width:1.2;stroke-linecap:butt;stroke-linejoin:miter;stroke:rgb(0%,0%,0%);stroke-opacity:1;stroke-miterlimit:10;" d="M 179.089844 92.636719 L 169.964844 86.347656 "/>
<path style=" stroke:none;fill-rule:nonzero;fill:rgb(100%,100%,100%);fill-opacity:1;" d="M 185.214844 93.425781 L 192.214844 93.425781 L 192.214844 104.425781 L 185.214844 104.425781 Z M 185.214844 93.425781 "/>
<g style="fill:rgb(0%,0%,100%);fill-opacity:1;">
  <use xlink:href="#glyph0-2" x="185.214844" y="102.088867"/>
</g>
<path style="fill:none;stroke-width:1.2;stroke-linecap:butt;stroke-linejoin:miter;stroke:rgb(0%,0%,0%);stroke-opacity:1;stroke-miterlimit:10;" d="M 169.964844 86.347656 L 149.945312 95.863281 "/>
<path style="fill:none;stroke-width:1.2;stroke-linecap:butt;stroke-linejoin:miter;stroke:rgb(0%,0%,0%);stroke-opacity:1;stroke-miterlimit:10;" d="M 170.203125 92.011719 L 154.1875 99.625 "/>
<path style="fill:none;stroke-width:1.2;stroke-linecap:butt;stroke-linejoin:miter;stroke:rgb(0%,0%,100%);stroke-opacity:1;stroke-miterlimit:10;" d="M 204.699219 133.597656 L 214.707031 128.839844 "/>
<path style="fill:none;stroke-width:1.2;stroke-linecap:butt;stroke-linejoin:miter;stroke:rgb(0%,0%,0%);stroke-opacity:1;stroke-miterlimit:10;" d="M 214.707031 128.839844 L 224.714844 124.082031 "/>
<path style=" stroke:none;fill-rule:nonzero;fill:rgb(100%,100%,100%);fill-opacity:1;" d="M 197.699219 128.097656 L 211.699219 128.097656 L 211.699219 139.097656 L 197.699219 139.097656 Z M 197.699219 128.097656 "/>
<g style="fill:rgb(0%,0%,100%);fill-opacity:1;">
  <use xlink:href="#glyph0-2" x="197.699219" y="136.760742"/>
  <use xlink:href="#glyph0-3" x="204.676758" y="136.760742"/>
</g>
<path style="fill:none;stroke-width:1.2;stroke-linecap:butt;stroke-linejoin:miter;stroke:rgb(0%,0%,0%);stroke-opacity:1;stroke-miterlimit:10;" d="M 224.714844 124.082031 L 242.964844 136.65625 "/>
<path style="fill:none;stroke-width:1.2;stroke-linecap:butt;stroke-linejoin:miter;stroke:rgb(0%,0%,0%);stroke-opacity:1;stroke-miterlimit:10;" d="M 226.480469 101.988281 L 224.714844 124.082031 "/>
<path style="fill:none;stroke-width:1.2;stroke-linecap:butt;stroke-linejoin:miter;stroke:rgb(0%,0%,0%);stroke-opacity:1;stroke-miterlimit:10;" d="M 242.964844 136.65625 L 262.984375 127.140625 "/>
<path style="fill:none;stroke-width:1.2;stroke-linecap:butt;stroke-linejoin:miter;stroke:rgb(0%,0%,0%);stroke-opacity:1;stroke-miterlimit:10;" d="M 262.984375 127.140625 L 263.867188 116.09375 "/>
<path style="fill:none;stroke-width:1.2;stroke-linecap:butt;stroke-linejoin:miter;stroke:rgb(100%,0%,0%);stroke-opacity:1;stroke-miterlimit:10;" d="M 263.867188 116.09375 L 264.75 105.046875 "/>
<path style="fill:none;stroke-width:1.2;stroke-linecap:butt;stroke-linejoin:miter;stroke:rgb(100%,0%,0%);stroke-opacity:1;stroke-miterlimit:10;" d="M 264.75 105.046875 L 255.625 98.757812 "/>
<path style="fill:none;stroke-width:1.2;stroke-linecap:butt;stroke-linejoin:miter;stroke:rgb(0%,0%,0%);stroke-opacity:1;stroke-miterlimit:10;" d="M 255.625 98.757812 L 246.5 92.46875 "/>
<path style=" stroke:none;fill-rule:nonzero;fill:rgb(100%,100%,100%);fill-opacity:1;" d="M 260.75 99.546875 L 268.75 99.546875 L 268.75 110.546875 L 260.75 110.546875 Z M 260.75 99.546875 "/>
<g style="fill:rgb(100%,0%,0%);fill-opacity:1;">
  <use xlink:href="#glyph0-1" x="260.75" y="108.209961"/>
</g>
<path style="fill:none;stroke-width:1.2;stroke-linecap:butt;stroke-linejoin:miter;stroke:rgb(0%,0%,0%);stroke-opacity:1;stroke-miterlimit:10;" d="M 246.5 92.46875 L 226.480469 101.988281 "/>
<path style="fill:none;stroke-width:1.2;stroke-linecap:butt;stroke-linejoin:miter;stroke:rgb(0%,0%,0%);stroke-opacity:1;stroke-miterlimit:10;" d="M 61.296875 108.027344 L 39.316406 110.890625 "/>
</g>
</svg>

<svg xmlns="http://www.w3.org/2000/svg" xmlns:xlink="http://www.w3.org/1999/xlink" width="300pt" height="300pt" viewBox="0 0 300 300"><defs><symbol overflow="visible"><path d="M.453 1.594v-7.938h4.5v7.938zm.5-.5h3.5v-6.938h-3.5zm0 0"/></symbol><symbol overflow="visible" id="a"><path d="M3.547-5.953c-.65 0-1.164.242-1.547.72-.375.48-.563 1.13-.563 1.952 0 .835.188 1.49.563 1.967.383.48.898.72 1.547.72.644 0 1.156-.24 1.53-.72.376-.476.564-1.132.564-1.968 0-.822-.187-1.474-.562-1.954-.375-.477-.887-.72-1.53-.72zm0-.734c.914 0 1.648.312 2.203.937.55.617.828 1.438.828 2.47 0 1.042-.277 1.87-.828 2.483-.555.617-1.29.922-2.203.922-.93 0-1.668-.305-2.22-.922C.774-1.41.5-2.237.5-3.28c0-1.033.273-1.853.828-2.47.55-.625 1.29-.938 2.22-.938zm0 0"/></symbol><symbol overflow="visible" id="b"><path d="M.89-6.563H2.08l2.906 5.485v-5.484h.86V0H4.656L1.75-5.484V0H.89zm0 0"/></symbol><symbol overflow="visible" id="c"><path d="M.89-6.563h.876v2.688H5v-2.688h.89V0H5v-3.125H1.766V0H.89zm0 0"/></symbol></defs><g><path fill="#fff" d="M0 0h300v300H0z"/><path d="M35.25 132.68l9.734 5.3" stroke-width="1.2" stroke="#f00" stroke-miterlimit="10" fill="none"/><path d="M44.984 137.98l9.73 5.3M39.316 110.89l-2.03 10.895" stroke-width="1.2" stroke="#000" stroke-miterlimit="10" fill="none"/><path d="M37.285 121.785L35.25 132.68" stroke-width="1.2" stroke="#f00" stroke-miterlimit="10" fill="none"/><path d="M31.25 127.18h8v11h-8zm0 0" fill="#fff"/><use xlink:href="#a" x="31.25" y="135.843" fill="#f00"/><path d="M54.715 143.28l16.097-15.237M70.813 128.043l10.894 2.035" stroke-width="1.2" stroke="#000" stroke-miterlimit="10" fill="none"/><path d="M81.707 130.078l10.895 2.03" stroke-width="1.2" stroke="#00f" stroke-miterlimit="10" fill="none"/><path d="M70.813 128.043l-9.516-20.016" stroke-width="1.2" stroke="#000" stroke-miterlimit="10" fill="none"/><path d="M92.602 132.11l16.093-15.235" stroke-width="1.2" stroke="#00f" stroke-miterlimit="10" fill="none"/><path d="M102.117 152.13l-4.758-10.01" stroke-width="1.2" stroke="#000" stroke-miterlimit="10" fill="none"/><path d="M97.36 142.12L92.6 132.11" stroke-width="1.2" stroke="#00f" stroke-miterlimit="10" fill="none"/><path d="M89.602 126.61h7v11h-7zm0 0" fill="#fff"/><use xlink:href="#b" x="89.602" y="135.272" fill="#00f"/><path d="M108.695 116.875l9.735 5.3" stroke-width="1.2" stroke="#00f" stroke-miterlimit="10" fill="none"/><path d="M118.43 122.176l9.73 5.3" stroke-width="1.2" stroke="#000" stroke-miterlimit="10" fill="none"/><path d="M108.148 122.516l7.786 4.238" stroke-width="1.2" stroke="#00f" stroke-miterlimit="10" fill="none"/><path d="M115.934 126.754l7.79 4.242" stroke-width="1.2" stroke="#000" stroke-miterlimit="10" fill="none"/><path d="M105.695 111.375h7v11h-7zm0 0" fill="#fff"/><use xlink:href="#b" x="105.695" y="120.038" fill="#00f"/><path d="M128.16 127.477l-2.03 10.894" stroke-width="1.2" stroke="#000" stroke-miterlimit="10" fill="none"/><path d="M126.13 138.37l-2.036 10.896" stroke-width="1.2" stroke="#00f" stroke-miterlimit="10" fill="none"/><path d="M128.16 127.477l20.02-9.52" stroke-width="1.2" stroke="#000" stroke-miterlimit="10" fill="none"/><path d="M124.094 149.266l7.62 8.047" stroke-width="1.2" stroke="#00f" stroke-miterlimit="10" fill="none"/><path d="M131.715 157.313l7.617 8.046" stroke-width="1.2" stroke="#000" stroke-miterlimit="10" fill="none"/><path d="M124.094 149.266l-10.99 1.43" stroke-width="1.2" stroke="#00f" stroke-miterlimit="10" fill="none"/><path d="M113.105 150.695l-10.988 1.434" stroke-width="1.2" stroke="#000" stroke-miterlimit="10" fill="none"/><path d="M121.094 143.766h7v11h-7zm0 0" fill="#fff"/><use xlink:href="#b" x="121.094" y="152.429" fill="#00f"/><path d="M139.332 165.36l21.56-5.145M142.7 169.918l17.245-4.117M133.008 186.605l6.324-21.246M160.89 160.215l15.235 16.097M176.125 176.313l-6.32 21.242M180.492 179.922l-5.058 16.996M197.684 171.164l-21.56 5.15M169.805 197.555l-21.56 5.148M169.805 197.555l15.238 16.097M148.246 202.703l-15.238-16.098M150.512 197.508l-12.192-12.88M185.043 213.652l21.56-5.148M185.984 208.063l17.25-4.118M206.602 208.504l6.32-21.242M212.922 187.262l-15.238-16.098M207.61 189.238l-12.188-12.88M99.828 150.883l-5.3 9.73" stroke-width="1.2" stroke="#000" stroke-miterlimit="10" fill="none"/><path d="M94.527 160.613l-5.3 9.735" stroke-width="1.2" stroke="#f00" stroke-miterlimit="10" fill="none"/><path d="M104.406 153.375l-5.3 9.734" stroke-width="1.2" stroke="#000" stroke-miterlimit="10" fill="none"/><path d="M99.105 163.11l-5.3 9.73" stroke-width="1.2" stroke="#f00" stroke-miterlimit="10" fill="none"/><path d="M83.516 166.094h8v11h-8zm0 0" fill="#fff"/><use xlink:href="#a" x="83.516" y="174.757" fill="#f00"/><path d="M148.18 117.957l18.25 12.578M152.965 114.922l14.597 10.062M149.945 95.863l-1.765 22.094M166.43 130.535l20.02-9.515M186.45 121.02l.882-11.047" stroke-width="1.2" stroke="#000" stroke-miterlimit="10" fill="none"/><path d="M187.332 109.973l.883-11.047" stroke-width="1.2" stroke="#00f" stroke-miterlimit="10" fill="none"/><path d="M181.426 118.395l.707-8.836" stroke-width="1.2" stroke="#000" stroke-miterlimit="10" fill="none"/><path d="M182.133 109.56l.707-8.84" stroke-width="1.2" stroke="#00f" stroke-miterlimit="10" fill="none"/><path d="M186.45 121.02l9.124 6.29" stroke-width="1.2" stroke="#000" stroke-miterlimit="10" fill="none"/><path d="M195.574 127.31l9.125 6.288M188.215 98.926l-9.125-6.29" stroke-width="1.2" stroke="#00f" stroke-miterlimit="10" fill="none"/><path d="M179.09 92.637l-9.125-6.29" stroke-width="1.2" stroke="#000" stroke-miterlimit="10" fill="none"/><path d="M185.215 93.426h7v11h-7zm0 0" fill="#fff"/><use xlink:href="#b" x="185.215" y="102.089" fill="#00f"/><path d="M169.965 86.348l-20.02 9.515M170.203 92.012l-16.016 7.613" stroke-width="1.2" stroke="#000" stroke-miterlimit="10" fill="none"/><path d="M204.7 133.598l10.007-4.758" stroke-width="1.2" stroke="#00f" stroke-miterlimit="10" fill="none"/><path d="M214.707 128.84l10.008-4.758" stroke-width="1.2" stroke="#000" stroke-miterlimit="10" fill="none"/><path d="M197.7 128.098h14v11h-14zm0 0" fill="#fff"/><g fill="#00f"><use xlink:href="#b" x="197.699" y="136.761"/><use xlink:href="#c" x="204.677" y="136.761"/></g><path d="M224.715 124.082l18.25 12.574M226.48 101.988l-1.765 22.094M242.965 136.656l20.02-9.515M262.984 127.14l.883-11.046" stroke-width="1.2" stroke="#000" stroke-miterlimit="10" fill="none"/><path d="M263.867 116.094l.883-11.047M264.75 105.047l-9.125-6.29" stroke-width="1.2" stroke="#f00" stroke-miterlimit="10" fill="none"/><path d="M255.625 98.758l-9.125-6.29" stroke-width="1.2" stroke="#000" stroke-miterlimit="10" fill="none"/><path d="M260.75 99.547h8v11h-8zm0 0" fill="#fff"/><use xlink:href="#a" x="260.75" y="108.21" fill="#f00"/><path d="M246.5 92.47l-20.02 9.518M61.297 108.027l-21.98 2.864" stroke-width="1.2" stroke="#000" stroke-miterlimit="10" fill="none"/></g></svg>
